X: 1
T: Good Seeing
C: David A Kaynor (2007)
%D:2007
B: David A. Kaynor "Living Music and Dance" 2021
Z: 2021 John Chambers <jc:trillian.mit.edu>
S: Dave_Kaynors_Melodies_and_Harmonies.PDF
M: 4/4
L: 1/8
K: D
|: de |\
"D"f2Ac d2DA | A3B AFDF | "Em"E2EF GFGA | "G"B3A "A"A2 ||
de |\
"D"f2Ac d2DA | A3B AFDF | "Em"E2EF "A"GEDC | "D"E3D D2 :|
DF |\
"A"E3F GEEG | "D"FAde fdAF | "G"G3AA BABd | "A"efge cA ||
Bc |\
"D"d2dc dcAc | d2dc AFDF | "Em"E2EF "A"GEDC | "D"E3D D2 |]
DF |\
"A"E3F GEEG | "D"FAde fdAF | "Em"GABd efge | "A"cABc BA ||
de |\
"D"f2Ac d2DA | A3B AFDF | "Em"E2EF "A"GEDC | "D"E3D D2 |]
